z_dist/img/icons/crypto/flow-FLOW.svg

<svg width="64" height="64" viewBox="0 0 64 64" fill="none" xmlns="http://www.w3.org/2000/svg">
<rect y="0.000244141" width="64" height="64" rx="4" fill="#00EF8B"/>
<rect x="36.9922" y="27.0081" width="9.024" height="9.024" fill="white"/>
<path d="M27.9669 39.4241C27.9669 41.2801 26.4309 42.8161 24.5749 42.8161C22.7189 42.8161 21.1829 41.2801 21.1829 39.4241C21.1829 37.5681 22.7189 36.0321 24.5749 36.0321H27.9669V27.0081H24.5749C17.7269 27.0081 12.1589 32.5761 12.1589 39.4241C12.1589 46.2721 17.7269 51.8401 24.5749 51.8401C31.4229 51.8401 36.9909 46.2721 36.9909 39.4241V36.0321H27.9669V39.4241Z" fill="white"/>
<path d="M40.3848 22.4644H50.5608V13.4404H40.3848C33.5368 13.4404 27.9688 19.0084 27.9688 25.8564V27.0084H36.9928V25.8564C36.9928 24.0004 38.5288 22.4644 40.3848 22.4644Z" fill="white"/>
<path d="M36.9928 27.0081H27.9688V36.0321H36.9928V27.0081Z" fill="#16FF99"/>
</svg>

<svg width="64" height="64" fill="none" xmlns="http://www.w3.org/2000/svg"><rect width="64" height="64" rx="4" fill="#00EF8B"/><path fill="#fff" d="M36.992 27.008h9.024v9.024h-9.024zm-9.025 12.416c0 1.856-1.536 3.392-3.392 3.392-1.856 0-3.392-1.536-3.392-3.392 0-1.856 1.536-3.392 3.392-3.392h3.392v-9.024h-3.392c-6.848 0-12.416 5.568-12.416 12.416 0 6.848 5.568 12.416 12.416 12.416 6.848 0 12.416-5.568 12.416-12.416v-3.392h-9.024v3.392z"/><path d="M40.385 22.464H50.56V13.44H40.385c-6.848 0-12.416 5.568-12.416 12.416v1.152h9.024v-1.152c0-1.856 1.536-3.392 3.392-3.392z" fill="#fff"/><path d="M36.993 27.008h-9.024v9.024h9.024v-9.024z" fill="#16FF99"/></svg>
